X:1
T:Title
%%score { ( 1 4 ) | ( 2 3 5 ) }
L:1/8
M:4/4
K:G
V:1 treble nm="Grand Piano"
V:4 treble 
V:2 bass 
V:3 bass 
V:5 bass 
V:1
 z4 z2[Q:1/4=92] Bc | BA^GA B2 F2 | [A,B,A]2 [B,G]4 [B,F][K:bass][B,E] | %3
 [D,CD][K:treble][CE][F,CF][CA] [DFd]2 [CEc]2 | [B,DB]6 [DB][Ec] | %5
 [B,DB][CA][^G,B,^G][CA] [B,DB]2 [F,CF]2 | [A,B,A]2 [B,G]4[K:bass] [F,_B,F][B,E] | %7
 [D,B,D][K:treble][B,G][DB][Ec] [B,DB]2 [A,CA]2 |[M:3/4] [G,B,G]6 |[M:1/4] d^c | %10
[M:4/4] cF=F^F [DFB]2 [CFA]2 | [B,D]6 d^c | cF=F^F [FB]2 A2 | d6 z2 | [^Ge]B_B=B c2 B2 | %15
 [^CB]2 [CE]4 [CF][CG] | BD^CD A3 [=CG] |[M:3/4] [B,G]6 |] %18
V:2
 z4 z2 [B,D][CE] | [B,D][A,C][^G,B,][A,C] [D,B,D]2 [F,C]2 | G,,2 D,2 G,2 F,E, | %3
 z E, z A, A,D,E,F, | G,E,D,B,, z2 B,C | z A, z A, D,2 ^D,2 | z2 G,4 z2 | z G,B,C D,D,,E,,F,, | %8
[M:3/4] G,,G,, B,,D, G,,2 |[M:1/4][K:treble] [B,DG][_B,EG] | %10
[M:4/4] [A,DF][K:bass][D,A,D][D,^G,D][D,A,D] D,2 D,2 | G,G,,B,,D, G,2[K:treble] [B,DG][_B,EG] | %12
 [A,DF][K:bass][D,A,D][D,^G,D][D,A,D] [D,D]2[K:treble] [CDF]2 | %13
 [B,DG]2 [A,C]2 [G,B,]2 [G,B,G][K:bass][=F,B,] | [E,B,][E,^G,E][E,=G,E][E,^G,E] [E,A,E]2 [E,G,D]2 | %15
 [A,,G,]2 [A,,G,]4 [A,,A,][A,,A,] | [D,G,D][D,G,][E,G,_B,][D,G,=B,] [D,F,C]3 [G,,D,] | %17
[M:3/4] [G,,D,G,]6 |] %18
V:3
 x8 | D,2 F,2 z4 | x8 | A,,2 D,2 z4 | z4 G,,4 | D,2 D,2 z4 | z2 z B,, G,,E,, z E, | D,,4 z4 | %8
[M:3/4] x6 |[M:1/4][K:treble] x2 |[M:4/4] x[K:bass] x7 | x6[K:treble] x2 | %12
 x[K:bass] x5[K:treble] x2 | x7[K:bass] x | x8 | x8 | x8 |[M:3/4] x6 |] %18
V:4
 x8 | x8 | z2 G,2 z4[K:bass] | x[K:treble] x7 | x8 | x8 | x6[K:bass] x2 | x[K:treble] x7 | %8
[M:3/4] x6 |[M:1/4] x2 |[M:4/4] x8 | x8 | x8 | z2 F2 G2 d[A^d] | x8 | x8 | x8 |[M:3/4] x6 |] %18
V:5
 x8 | x8 | x8 | x8 | x8 | x8 | E,4 z2 ^C,,2 | x8 |[M:3/4] x6 |[M:1/4][K:treble] x2 | %10
[M:4/4] x[K:bass] x7 | x6[K:treble] x2 | x[K:bass] x5[K:treble] x2 | x7[K:bass] x | x8 | x8 | x8 | %17
[M:3/4] x6 |] %18

